X:1
%%vskip 3in
T:Harmony for Sligo Creek
M: C|
R: reel
K: Bm treble
%%vskip 3in
|c2 AB AF F2|B2 AB AB B2|e2 AA FE DB,|A,B,DE F3 A|
B2 AB AF F2|B2 AB AB B2|e2 AA FDAF|EFFE F4:|
|:G8|F8|E8|C8|B,8|A,8|A,8|F,4 B,4:|
%%text 1/25/06
